X: 137
T: 137. Wer Gott vertraut, hat wohl gebaut
N: Derived from chor137.krn
C: Johann Sebastian Bach
%%abc-version 2.0
%%abcx-abcm2ps-target-version 5.9.1 (29 Sep 2008)
%%abc-creator hum2abc beta
%%abcx-conversion-date 2019/03/11 17:28:18
%%abc-edited-by Craig Stuart Sapp
%%humdrum-veritas 3663902462
%%humdrum-veritas-data 2605413586
%%
%%barnumbers 0
L: 1/4
M: C
%%staves [1 2 3 4]
V: 1 clef=treble
V: 2 clef=treble
V: 3 clef=treble-8
V: 4 clef=bass
K: G
[V:1] zGGA | 
[V:2] xDE/GF/ | 
[V:3] xBBd | 
[V:4] zG,/F,/E,D, | 
[V:1] !fermata!B2zB | 
[V:2] !fermata!G2xG- | 
[V:3] !fermata!d2xd | 
[V:4] !fermata!G,2zG,, | 
[V:1] cB!fermata!A2 | 
[V:2] G/F/G-G!fermata!F | 
[V:3] cd!fermata!d2 | 
[V:4] A,,B,,/C,/!fermata!D,2 | 
[V:1] zAGA | 
[V:2] xF-F/ED/ | 
[V:3] xd/c/BA- | 
[V:4] zD,E,F, | 
[V:1] BAG2 | 
[V:2] DDD^C | 
[V:3] A/GF/ G/B/A/G/ | 
[V:4] G,D,E,2 | 
[V:1] !fermata!AABA | 
[V:2] !fermata!DDD/E/F- | 
[V:3] !fermata!Fd/=c/ B/^c/ d/c/ | 
[V:4] !fermata!D,F,G,D, | 
[V:1] GGF2 | 
[V:2] F/E/ D/E/D2 | 
[V:3] BB/A/ A/B/c | 
[V:4] E,B,,/C,/D,2 | 
[V:1] !fermata!G4 :|]  
[V:2] !fermata!D4 :|]  
[V:3] !fermata!B4 :|]  
[V:4] !fermata!G,,4 :|]  
[V:1] zBcB | 
[V:2] xGG/AG/- | 
[V:3] xde/d/d | 
[V:4] zG,/F,/ E,/F,/G, | 
[V:1] !fermata!A2zA | 
[V:2] G/F//E//!fermata!FxF- | 
[V:3] !fermata!d2xB | 
[V:4] !fermata!D,2z^D,/B,,/ | 
[V:1] GG!fermata!F2 | 
[V:2] FE-E!fermata!^D | 
[V:3] BB!fermata!B2 | 
[V:4] E,/F,/G,/A,/!fermata!B,2 | 
[V:1] zFGF | 
[V:2] xFB,/E/^D | 
[V:3] xB/A/ G/c/- c/B/- | 
[V:4] z^D,E,B,, | 
[V:1] EE^D2 | 
[V:2] EB,/C/B,2 | 
[V:3] B/A/ G/F/ F/G/A | 
[V:4] C,G,,/A,,/B,,2 | 
[V:1] !fermata!E2zG | 
[V:2] !fermata!B,2xB,/C/ | 
[V:3] !fermata!G2xG/A/ | 
[V:4] !fermata!E,2zE, | 
[V:1] GF!fermata!G2 | 
[V:2] D/E/D!fermata!D2 | 
[V:3] B/A/ A//B//c/c!fermata!B | 
[V:4] B,,/C,/D,!fermata!G,,2 | 
[V:1] zBcB | 
[V:2] xGA3/G/ | 
[V:3] xd/e/- e/d/d | 
[V:4] zG,-G,/F,/G, | 
[V:1] !fermata!A2zA | 
[V:2] G!fermata!FxF | 
[V:3] !fermata!d2xd | 
[V:4] !fermata!D,2zC, | 
[V:1] GABA | 
[V:2] GDD/E/ F/E/ | 
[V:3] d3/c/ B/c/d | 
[V:4] B,,F,,G,,D,/C,/ | 
[V:1] G2!fermata!AA | 
[V:2] D/C/D/E/!fermata!FA- | 
[V:3] G/A/ B/c//B//!fermata!Ad | 
[V:4] B,,/A,,/G,,!fermata!D,F, | 
[V:1] BAGG | 
[V:2] A/GFE/ D/E/ | 
[V:3] ddB3/A/ | 
[V:4] G,D,E,B,,/C,/ | 
[V:1] F2!fermata!G2 |]  
[V:2] D2!fermata!D2 |]  
[V:3] A/B/c!fermata!B2 |]  
[V:4] D,2!fermata!G,,2 |]  



